static/logos/betterStack-wordmark-color.svg

<svg width="100" height="16" viewBox="0 0 100 16" fill="none" xmlns="http://www.w3.org/2000/svg">
<g clip-path="url(#clip0_1_3411)">
<path d="M24.8984 12.7975H28.7554C30.7514 12.7975 32.127 11.7726 32.127 9.97921C32.127 8.73863 31.3988 7.98346 30.5356 7.64636C31.0885 7.34969 31.6415 6.67544 31.6415 5.78552C31.6415 4.20781 30.3603 3.35828 28.6475 3.35828H24.8984V12.7975ZM26.8943 6.95865V4.96296H28.4588C29.3624 4.96296 29.7669 5.32703 29.7669 5.9608C29.7669 6.59463 29.3624 6.95865 28.4992 6.95865H26.8943ZM26.8943 11.0445V8.67123H28.5802C29.6995 8.67123 30.1985 9.10265 30.1985 9.87137C30.1985 10.64 29.6995 11.0445 28.5802 11.0445H26.8943Z" fill="black"/>
<path d="M37.5205 10.4916C37.3721 11.0714 36.8732 11.3681 36.1179 11.3681C35.1739 11.3681 34.567 10.7747 34.4321 9.81729H39.3142C39.3276 9.66898 39.3411 9.46678 39.3411 9.21049C39.3411 7.65983 38.3836 5.89331 35.9831 5.89331C33.677 5.89331 32.625 7.65983 32.625 9.38582C32.625 11.0984 33.8118 12.9053 36.1179 12.9053C37.7902 12.9053 39.0849 11.9613 39.3546 10.4916H37.5205ZM35.9831 7.26879C36.8867 7.26879 37.4126 7.87559 37.4665 8.63076H34.4592C34.621 7.68675 35.1335 7.26879 35.9831 7.26879Z" fill="black"/>
<path d="M40.855 3.99207V5.52931C40.855 5.86646 40.6663 6.00121 40.3831 6.00121H39.5469V7.56538H40.855V10.3298C40.855 11.9074 41.8665 12.7975 43.4309 12.7975H44.5503V11.0984H43.6872C43.0803 11.0984 42.7296 10.7882 42.7296 10.1275V7.56538H44.5503V6.00121H42.7296V3.99207H40.855Z" fill="black"/>
<path d="M46.1675 3.99207V5.52931C46.1675 5.86646 45.9787 6.00121 45.6955 6.00121H44.8594V7.56538H46.1675V10.3298C46.1675 11.9074 47.179 12.7975 48.7434 12.7975H49.8628V11.0984H48.9994C48.3927 11.0984 48.042 10.7882 48.042 10.1275V7.56538H49.8628V6.00121H48.042V3.99207H46.1675Z" fill="black"/>
<path d="M55.0281 10.4916C54.8798 11.0714 54.3805 11.3681 53.6257 11.3681C52.6815 11.3681 52.0746 10.7747 51.94 9.81729H56.8215C56.8352 9.66898 56.8489 9.46678 56.8489 9.21049C56.8489 7.65983 55.891 5.89331 53.4906 5.89331C51.1847 5.89331 50.1328 7.65983 50.1328 9.38582C50.1328 11.0984 51.3193 12.9053 53.6257 12.9053C55.2978 12.9053 56.5924 11.9613 56.8621 10.4916H55.0281ZM53.4906 7.26879C54.3942 7.26879 54.9204 7.87559 54.9742 8.63076H51.9669C52.1284 7.68675 52.6409 7.26879 53.4906 7.26879Z" fill="black"/>
<path d="M61.9735 7.56539V6.00122H61.2046C60.3818 6.00122 59.8693 6.28438 59.5051 7.13392V6.00122H57.6172V12.7975H59.5051V9.49373C59.5051 8.33406 59.9236 7.56539 60.8541 7.56539H61.9735Z" fill="black"/>
<path d="M68.4435 12.9053C70.561 12.9053 71.9907 11.7995 71.9907 10.0331C71.9907 6.29786 67.0274 7.88909 67.0274 5.92032C67.0274 5.36741 67.5267 4.98988 68.3221 4.98988C69.2257 4.98988 69.7925 5.47534 69.8595 6.21694H71.7881C71.7342 4.4235 70.3588 3.25037 68.3221 3.25037C66.4073 3.25037 65.0588 4.35606 65.0588 5.92032C65.0588 9.62855 69.954 8.21269 69.954 10.06C69.954 10.7747 69.3471 11.1523 68.4435 11.1523C67.4459 11.1523 66.8121 10.5455 66.7308 9.58811H64.7891C64.8698 11.5973 66.2996 12.9053 68.4435 12.9053Z" fill="black"/>
<path d="M73.5657 3.99207V5.52931C73.5657 5.86646 73.3768 6.00121 73.0938 6.00121H72.2578V7.56538H73.5657V10.3298C73.5657 11.9074 74.5769 12.7975 76.1418 12.7975H77.2607V11.0984H76.3978C75.7908 11.0984 75.4404 10.7882 75.4404 10.1275V7.56538H77.2607V6.00121H75.4404V3.99207H73.5657Z" fill="black"/>
<path d="M80.8506 12.9053C81.646 12.9053 82.3611 12.5816 82.6979 12.0827V12.7975H84.5863V6.00119H82.6979V6.6754C82.3205 6.20354 81.646 5.89331 80.8237 5.89331C78.8408 5.89331 77.6406 7.2822 77.6406 9.39933C77.6406 11.5164 78.8408 12.9053 80.8506 12.9053ZM81.1472 11.2871C80.1492 11.2871 79.4884 10.532 79.4884 9.39933C79.4884 8.25312 80.1492 7.49801 81.1472 7.49801C82.1585 7.49801 82.8193 8.25312 82.8193 9.39933C82.8193 10.532 82.1585 11.2871 81.1472 11.2871Z" fill="black"/>
<path d="M88.9671 12.9053C90.7336 12.9053 92.1364 11.7726 92.3386 10.2624H90.4232C90.2891 10.8691 89.7355 11.2871 89.0483 11.2871C88.0233 11.2871 87.4164 10.505 87.4164 9.39933C87.4164 8.29365 88.0101 7.49801 89.0209 7.49801C89.7086 7.49801 90.2891 7.94299 90.3963 8.5498H92.2847C92.1633 6.97212 90.7473 5.89331 88.9671 5.89331C86.8633 5.89331 85.4609 7.4171 85.4609 9.39933C85.4609 11.3816 86.8633 12.9053 88.9671 12.9053Z" fill="black"/>
<path d="M97.6967 12.7975H99.963L97.0359 8.67125L99.7471 6.00126H97.3732L95.0134 8.32064V3.04822H93.125V12.7975H95.0134V10.6669L95.7682 9.92534L97.6967 12.7975Z" fill="black"/>
<path fill-rule="evenodd" clip-rule="evenodd" d="M14.6811 12.1703L16.147 12.4523C17.6023 12.7324 18.713 11.1724 17.9719 9.88906L12.7699 0.879829C12.0288 -0.403515 10.1223 -0.221758 9.63723 1.17848L9.14849 2.5889C9.42877 2.79189 9.67585 3.05975 9.86881 3.39398L14.3439 11.1442C14.5369 11.4783 14.6454 11.8262 14.6811 12.1703ZM13.7933 11.9995C13.7547 11.8532 13.6955 11.7077 13.6136 11.5659L9.13846 3.81559C9.05652 3.67372 8.96004 3.54956 8.85265 3.44303L7.90625 6.17472L9.63723 11.1997L13.7933 11.9995Z" fill="black"/>
<path d="M1.50866 14.9421C0.420666 14.7709 -0.232301 13.6401 0.163332 12.6123L2.08829 7.61182C2.61074 6.25446 4.47345 6.10874 5.20073 7.36831L8.5694 13.2022C9.29666 14.4617 8.23905 16.0018 6.80219 15.7756L1.50866 14.9421Z" fill="black"/>
<path fill-rule="evenodd" clip-rule="evenodd" d="M9.63443 13.8454L11.8841 14.1451C13.3071 14.3346 14.3284 12.8088 13.6107 11.5658L9.13546 3.81546C8.41774 2.57248 6.58548 2.69396 6.03825 4.02085L5.173 6.11873C5.46586 6.32411 5.72415 6.59945 5.92459 6.94648L9.29327 12.7804C9.49366 13.1275 9.60291 13.489 9.63443 13.8454ZM8.76478 13.7295C8.72846 13.5519 8.66233 13.3743 8.56282 13.202L5.19424 7.36812C5.09478 7.19587 4.97408 7.04986 4.83842 6.92974L3.24119 10.8023C2.80842 11.8517 3.48675 13.0264 4.61193 13.1763L8.76478 13.7295Z" fill="black"/>
</g>
<defs>
<clipPath id="clip0_1_3411">
<rect width="100" height="15.8101" fill="white"/>
</clipPath>
</defs>
</svg>

<svg xmlns="http://www.w3.org/2000/svg" width="400" height="64" fill="none" viewBox="0 0 100 16"><g fill="#000" clip-path="url(#a)"><path d="M24.898 12.797h3.857c1.996 0 3.372-1.024 3.372-2.818 0-1.24-.728-1.996-1.591-2.333a2.142 2.142 0 0 0 1.105-1.86c0-1.578-1.28-2.428-2.993-2.428h-3.75v9.44Zm1.996-5.838V4.963h1.565c.903 0 1.308.364 1.308.998s-.405.998-1.268.998h-1.605Zm0 4.085V8.671h1.686c1.12 0 1.619.432 1.619 1.2 0 .769-.5 1.173-1.619 1.173h-1.686ZM37.52 10.492c-.148.58-.647.876-1.402.876-.944 0-1.551-.593-1.686-1.55h4.882c.014-.149.027-.351.027-.608 0-1.55-.957-3.317-3.358-3.317-2.306 0-3.358 1.767-3.358 3.493 0 1.712 1.187 3.52 3.493 3.52 1.672 0 2.967-.945 3.237-2.414H37.52Zm-1.537-3.223c.904 0 1.43.607 1.484 1.362h-3.008c.162-.944.674-1.362 1.524-1.362ZM40.855 3.992V5.53c0 .337-.189.472-.472.472h-.836v1.564h1.308v2.765c0 1.577 1.012 2.467 2.576 2.467h1.12v-1.699h-.864c-.607 0-.957-.31-.957-.97V7.564h1.82V6.001h-1.82V3.992h-1.875ZM46.167 3.992V5.53c0 .337-.188.472-.471.472h-.837v1.564h1.308v2.765c0 1.577 1.012 2.467 2.576 2.467h1.12v-1.699h-.864c-.606 0-.957-.31-.957-.97V7.564h1.82V6.001h-1.82V3.992h-1.875ZM55.028 10.492c-.148.58-.648.876-1.402.876-.944 0-1.551-.593-1.686-1.55h4.882c.013-.149.027-.351.027-.608 0-1.55-.958-3.317-3.358-3.317-2.306 0-3.358 1.767-3.358 3.493 0 1.712 1.186 3.52 3.493 3.52 1.672 0 2.966-.945 3.236-2.414h-1.834Zm-1.537-3.223c.903 0 1.43.607 1.483 1.362h-3.007c.161-.944.674-1.362 1.524-1.362ZM61.974 7.565V6.001h-.77c-.822 0-1.335.283-1.699 1.133V6h-1.888v6.796h1.888V9.494c0-1.16.419-1.929 1.35-1.929h1.119ZM68.444 12.905c2.117 0 3.547-1.105 3.547-2.872 0-3.735-4.964-2.144-4.964-4.113 0-.553.5-.93 1.295-.93.904 0 1.47.485 1.537 1.227h1.93c-.055-1.793-1.43-2.967-3.467-2.967-1.915 0-3.263 1.106-3.263 2.67 0 3.709 4.895 2.293 4.895 4.14 0 .715-.607 1.092-1.51 1.092-.998 0-1.632-.606-1.713-1.564h-1.942c.08 2.01 1.51 3.317 3.654 3.317ZM73.566 3.992V5.53c0 .337-.19.472-.472.472h-.836v1.564h1.308v2.765c0 1.577 1.01 2.467 2.576 2.467h1.119v-1.699h-.863c-.607 0-.958-.31-.958-.97V7.564h1.82V6.001h-1.82V3.992h-1.874ZM80.85 12.905c.796 0 1.511-.323 1.848-.822v.714h1.888V6.001h-1.888v.674c-.377-.471-1.052-.782-1.874-.782-1.983 0-3.183 1.39-3.183 3.506 0 2.117 1.2 3.506 3.21 3.506Zm.297-1.618c-.998 0-1.659-.755-1.659-1.888 0-1.146.661-1.901 1.66-1.901 1.01 0 1.671.755 1.671 1.901 0 1.133-.66 1.888-1.672 1.888ZM88.967 12.905c1.767 0 3.17-1.132 3.372-2.643h-1.916c-.134.607-.688 1.025-1.375 1.025-1.025 0-1.632-.782-1.632-1.888 0-1.105.594-1.901 1.605-1.901.688 0 1.268.445 1.375 1.052h1.889c-.122-1.578-1.538-2.657-3.318-2.657-2.104 0-3.506 1.524-3.506 3.506 0 1.983 1.402 3.506 3.506 3.506ZM97.697 12.797h2.266l-2.927-4.126 2.711-2.67h-2.374l-2.36 2.32V3.048h-1.888v9.75h1.888v-2.131l.755-.742 1.929 2.872Z"/><path fill-rule="evenodd" d="m14.681 12.17 1.466.282c1.455.28 2.566-1.28 1.825-2.563L12.77.88c-.741-1.283-2.648-1.1-3.133.3l-.489 1.41c.28.203.528.47.72.805l4.476 7.75c.193.334.301.682.337 1.026Zm-.888-.17a1.767 1.767 0 0 0-.18-.434l-4.475-7.75a1.77 1.77 0 0 0-.285-.373l-.947 2.732L9.637 11.2l4.156.8Z" clip-rule="evenodd"/><path d="M1.509 14.942a1.73 1.73 0 0 1-1.346-2.33l1.925-5c.523-1.358 2.385-1.503 3.113-.244l3.368 5.834c.728 1.26-.33 2.8-1.767 2.574l-5.293-.834Z"/><path fill-rule="evenodd" d="m9.634 13.845 2.25.3c1.423.19 2.444-1.336 1.727-2.58l-4.476-7.75c-.717-1.243-2.55-1.121-3.097.206l-.865 2.098c.293.205.551.48.752.827l3.368 5.834c.2.348.31.709.341 1.065Zm-.87-.116a1.757 1.757 0 0 0-.201-.527L5.194 7.368c-.1-.172-.22-.318-.356-.438l-1.597 3.872a1.73 1.73 0 0 0 1.37 2.374l4.154.553Z" clip-rule="evenodd"/></g><defs><clipPath id="a"><path fill="#fff" d="M0 0h100v15.81H0z"/></clipPath></defs></svg>
